assets/Woman judge/Light/Flat/woman_judge_flat_light.svg

<svg width="32" height="32" viewBox="0 0 32 32" fill="none" xmlns="http://www.w3.org/2000/svg">
<path d="M23.5899 12.34C23.8099 11.89 23.9299 11.39 23.9299 10.86C23.9299 10.16 23.7199 9.51001 23.3599 8.97001C22.9999 8.41001 22.8099 7.77001 22.8099 7.12001V7.11001C22.8099 5.22001 21.2799 3.68001 19.3799 3.68001C19.1899 3.68001 19.0199 3.59001 18.9099 3.44001C18.2899 2.57001 17.2699 2.01001 16.1199 2.01001C14.9699 2.01001 13.9499 2.58001 13.3299 3.44001C13.2299 3.59001 13.0499 3.68001 12.8699 3.68001C10.9799 3.68001 9.43995 5.21001 9.43995 7.11001C9.43995 7.77001 9.24995 8.42001 8.88995 8.96001C8.52995 9.50001 8.31995 10.15 8.31995 10.85C8.31995 11.38 8.43995 11.89 8.65995 12.33C8.72995 12.48 8.72995 12.66 8.65995 12.81C8.43995 13.25 8.31995 13.75 8.31995 14.27C8.31995 16.12 9.81995 17.62 11.6699 17.62H20.5899C22.4399 17.62 23.9399 16.12 23.9399 14.27C23.9399 13.74 23.8199 13.25 23.5999 12.81C23.5199 12.66 23.5199 12.49 23.5899 12.34Z" fill="#212121"/>
<path d="M9 18.016C9.18297 17.8649 9.3709 17.7196 9.56351 17.5804L16.005 17.5L22.9528 17.9724C22.9686 17.9853 22.9843 17.9982 23 18.0111L24.5 24L23 30H9L7.5 24L9 18.016Z" fill="#212121"/>
<path d="M16.0356 15.5001C16.0237 15.5 16.0119 15.5 16 15.5C14.331 15.5 12.7497 15.873 11.3336 16.5372L11.3321 16.5369C10.7067 16.8304 10.1134 17.1811 9.55895 17.5822C9.52057 17.7148 9.5 17.855 9.5 18C9.5 18.572 9.8202 19.0693 10.2911 19.3223C10.3728 19.3661 10.3957 19.4806 10.3371 19.5524C10.1264 19.8108 10 20.1406 10 20.5C10 21.3284 10.6716 22 11.5 22C11.6459 22 11.787 21.9792 11.9204 21.9403C11.9597 21.9288 12 21.959 12 22C12 22.8284 12.6716 23.5 13.5 23.5C13.8594 23.5 14.1892 23.3736 14.4476 23.1629C14.5194 23.1043 14.6339 23.1272 14.6777 23.2089C14.9307 23.6798 15.428 24 16 24C16.572 24 17.0693 23.6798 17.3223 23.2089C17.3661 23.1272 17.4806 23.1043 17.5524 23.1629C17.8108 23.3736 18.1406 23.5 18.5 23.5C19.3284 23.5 20 22.8284 20 22C20 21.959 20.0403 21.9288 20.0796 21.9403C20.213 21.9792 20.3541 22 20.5 22C21.3284 22 22 21.3284 22 20.5C22 20.2052 21.915 19.9303 21.7681 19.6985C21.7125 19.6107 21.7648 19.4804 21.8656 19.4551C22.5118 19.2933 22.9918 18.7123 22.9999 18.0178C21.1413 16.4798 18.7683 15.5424 16.1775 15.5014C16.1303 15.5007 16.0829 15.5002 16.0356 15.5001Z" fill="#F3EEF8"/>
<path d="M15.0761 10.3419L14.4378 10.9017L14.4334 10.9055C13.5211 11.7149 13 12.8742 13 14.0865V17.0346C13 18.6909 14.3574 20 16 20C17.6426 20 19 18.6909 19 17.0346L19 14.0865C19 12.8672 18.4638 11.7102 17.5568 10.9055L17.5525 10.9017L16.9215 10.3483L16.9141 10.342C16.3839 9.88604 15.6064 9.886 15.0761 10.3419Z" fill="black"/>
<path d="M5.00005 26.5C4.99004 23.09 6.56779 20.03 9 18V30H5L5.00005 26.5Z" fill="black"/>
<path d="M22.9964 30V18.01C25.4486 20.03 27 23.09 27 26.5V30H22.9964Z" fill="black"/>
<path d="M12.5 24.74V29.99H11.5V24.74C11.5 24.46 11.72 24.24 12 24.24C12.28 24.24 12.5 24.46 12.5 24.74Z" fill="black"/>
<path d="M16.5 24.74V29.99H15.5V24.74C15.5 24.46 15.72 24.24 16 24.24C16.28 24.24 16.5 24.46 16.5 24.74Z" fill="black"/>
<path d="M20.5 24.74V29.99H19.5V24.74C19.5 24.46 19.72 24.24 20 24.24C20.28 24.24 20.5 24.46 20.5 24.74Z" fill="black"/>
<path d="M15.0971 11.6535L15.7282 11.1002C15.8835 10.9666 16.1068 10.9666 16.2621 11.1002L16.8932 11.6535C17.5922 12.2737 18 13.161 18 14.0865L18 17.0346C18 18.1222 17.1068 19 16 19C14.8932 19 14 18.1222 14 17.0346L14 14.0865C14 13.161 14.3981 12.2737 15.0971 11.6535Z" fill="#F4C6AD"/>
<path d="M26.9946 23C27.552 23 28 23.4073 28 23.9139V26H26.0002V23.9139C25.9893 23.4073 26.4373 23 26.9946 23Z" fill="#F4C6AD"/>
<path d="M22.62 20.99C22.16 20.99 21.78 20.62 21.78 20.15V17.82C21.78 17.36 22.15 16.98 22.62 16.98C23.08 16.98 23.46 17.35 23.46 17.82V18L23.4601 17.5C23.4601 17.22 23.6901 17 23.9601 17H26.8401C27.1101 17 27.3301 17.22 27.3401 17.5V17.6899C27.4021 17.2905 27.7452 16.98 28.1701 16.98C28.6301 16.98 29.0101 17.35 29.0101 17.82V20.15C29.0001 20.62 28.6301 20.99 28.1701 20.99C27.7537 20.99 27.4029 20.6869 27.3401 20.2808V20.5C27.3401 20.78 27.1101 21 26.8401 21H26.32C26.5505 21.047 26.7188 21.2531 26.7101 21.49C26.7101 21.77 26.4901 21.99 26.2101 21.99H26.1401V27.37H24.6401V21.99H24.5701C24.2901 21.99 24.0701 21.77 24.0701 21.49C24.0701 21.245 24.2385 21.046 24.4681 21H23.9601C23.6801 21 23.4601 20.77 23.4601 20.5V20L23.46 20.15C23.46 20.62 23.08 20.99 22.62 20.99Z" fill="#7D4533"/>
<path d="M24.2018 24.5105C23.8284 24.5105 23.5096 24.8457 23.5005 25.2752C23.4913 25.5581 23.6189 25.8095 23.8101 25.9562C23.628 26.0924 23.5005 26.3333 23.5005 26.6057C23.5005 26.8781 23.6189 27.119 23.8101 27.2552C23.628 27.3914 23.5005 27.6324 23.5005 27.9048C23.5005 28.1771 23.6189 28.4181 23.8101 28.5543C23.6189 28.701 23.5005 28.9524 23.5005 29.2352C23.5096 29.6648 23.8284 30 24.2018 30H27.2076C27.6448 30 28 29.5914 28 29.0886V25.4114C28 24.9086 27.6448 24.5 27.2076 24.5H24.2018V24.5105Z" fill="#FFD7C2"/>
<path d="M13.1612 10.66C13.1612 11.5603 12.4315 12.29 11.5312 12.29C10.631 12.29 9.90125 11.5603 9.90125 10.66C9.90125 9.7598 10.631 9.03003 11.5312 9.03003C12.4315 9.03003 13.1612 9.7598 13.1612 10.66Z" fill="#F4C6AD"/>
<path d="M22.3588 10.66C22.3588 11.5603 21.629 12.29 20.7288 12.29C19.8285 12.29 19.0988 11.5603 19.0988 10.66C19.0988 9.7598 19.8285 9.03003 20.7288 9.03003C21.629 9.03003 22.3588 9.7598 22.3588 10.66Z" fill="#F4C6AD"/>
<path d="M12.065 7.58003H15.365C16.675 7.58003 17.895 6.93003 18.635 5.85003C18.755 5.67003 19.035 5.70003 19.115 5.90003L19.205 6.11003C19.435 6.68003 19.885 7.13003 20.425 7.38003C20.465 7.39003 20.505 7.41003 20.535 7.42003C20.785 7.54003 21.345 7.92003 21.365 8.90003L21.225 12.19C21.105 15.11 18.855 17.06 16.125 17.06C13.395 17.06 11.145 15.11 11.025 12.19L10.895 9.06003C10.915 7.68003 11.875 7.59003 12.065 7.58003Z" fill="#FFD7C2"/>
<path d="M13.42 9.5C14.01 9.5 14.49 9.9 14.79 10.36C14.5357 10.4377 14.2889 10.5079 14.0452 10.5773C13.5988 10.7042 13.1628 10.8283 12.71 10.99L12.21 10.54C12 10.35 12.02 10.02 12.24 9.86C12.57 9.63 13.01 9.5 13.42 9.5Z" fill="black"/>
<path d="M18.86 9.5C18.28 9.5 17.8 9.91 17.5 10.36C17.7673 10.4428 18.0275 10.5171 18.286 10.591C18.714 10.7132 19.1373 10.8341 19.58 10.99L20.08 10.54C20.28 10.35 20.27 10.02 20.04 9.86C19.71 9.63 19.27 9.5 18.86 9.5Z" fill="black"/>
<path d="M12.2 10.7001C12.36 10.0701 12.93 9.6001 13.61 9.6001C14.31 9.6001 14.9 10.1001 15.03 10.7701C15.06 10.9201 14.94 11.0501 14.79 11.0501H12.48C12.29 11.0501 12.16 10.8801 12.2 10.7001Z" fill="white"/>
<path d="M20.08 10.7001C19.92 10.0701 19.35 9.6001 18.67 9.6001C17.97 9.6001 17.38 10.1001 17.25 10.7701C17.22 10.9201 17.34 11.0501 17.49 11.0501H19.8C19.99 11.0501 20.12 10.8801 20.08 10.7001Z" fill="white"/>
<path d="M12.89 10.8099C12.89 10.2999 13.31 9.87988 13.82 9.87988C14.33 9.87988 14.75 10.2899 14.75 10.7999C14.75 10.8899 14.74 10.9699 14.71 11.0599H12.92C12.9 10.9799 12.89 10.8999 12.89 10.8099Z" fill="#7D4533"/>
<path d="M19.39 10.8099C19.39 10.2999 18.97 9.87988 18.46 9.87988C17.95 9.87988 17.53 10.2899 17.54 10.8099C17.54 10.8999 17.55 10.9799 17.57 11.0599H19.36C19.38 10.9799 19.39 10.8999 19.39 10.8099Z" fill="#7D4533"/>
<path d="M13.82 10.27C14.11 10.27 14.35 10.51 14.35 10.8C14.35 10.89 14.33 10.98 14.29 11.05H13.35C13.31 10.97 13.29 10.89 13.29 10.8C13.29 10.51 13.53 10.27 13.82 10.27Z" fill="black"/>
<path d="M18.4599 10.27C18.1699 10.27 17.9299 10.51 17.9299 10.8C17.9299 10.89 17.9499 10.98 17.9899 11.05H18.9299C18.9699 10.97 18.9899 10.89 18.9899 10.8C18.9899 10.51 18.7499 10.27 18.4599 10.27Z" fill="black"/>
<path d="M13.6701 10.44C13.6701 10.5339 13.594 10.61 13.5001 10.61C13.4062 10.61 13.3301 10.5339 13.3301 10.44C13.3301 10.3461 13.4062 10.27 13.5001 10.27C13.594 10.27 13.6701 10.3461 13.6701 10.44Z" fill="white"/>
<path d="M18.32 10.44C18.32 10.5339 18.2439 10.61 18.15 10.61C18.0561 10.61 17.98 10.5339 17.98 10.44C17.98 10.3461 18.0561 10.27 18.15 10.27C18.2439 10.27 18.32 10.3461 18.32 10.44Z" fill="white"/>
<path d="M16.13 13.9399C15.59 13.9399 15.08 13.8099 14.66 13.5899C14.51 13.5099 14.36 13.6799 14.45 13.8199C14.81 14.3699 15.43 14.7399 16.13 14.7399C16.83 14.7399 17.46 14.3699 17.81 13.8199C17.9 13.6799 17.74 13.5199 17.6 13.5899C17.17 13.8099 16.67 13.9399 16.13 13.9399Z" fill="#990838"/>
<path d="M15.74 10.57L15.21 12.27C15.1 12.62 15.36 12.97 15.73 12.97H16.51C16.88 12.97 17.14 12.62 17.03 12.27L16.5 10.57C16.39 10.2 15.86 10.2 15.74 10.57Z" fill="#E5AF93"/>
<path d="M19.6601 8.92996C19.7101 8.95996 19.7501 8.96996 19.8001 8.96996C19.9001 8.96996 19.9901 8.91996 20.0401 8.82996C20.1201 8.69996 20.0701 8.52996 19.9401 8.44996C19.9401 8.44996 19.9355 8.44758 19.9312 8.44529C19.8279 8.39029 18.9585 7.92756 17.9601 8.10996C17.8101 8.12996 17.7101 8.27996 17.7401 8.42996C17.7601 8.57996 17.9101 8.67996 18.0601 8.64996C18.8281 8.51281 19.5209 8.86053 19.6416 8.92112C19.6529 8.9268 19.6601 8.92996 19.6601 8.92996Z" fill="#212121"/>
<path d="M12.21 8.82996C12.26 8.91996 12.35 8.96996 12.45 8.96996C12.5 8.96996 12.54 8.95996 12.59 8.92996C12.59 8.92996 12.5971 8.92689 12.6084 8.92138C12.7288 8.86236 13.4218 8.52277 14.19 8.65996C14.34 8.68996 14.48 8.58996 14.5 8.42996C14.53 8.27996 14.43 8.13996 14.28 8.10996C13.2914 7.92759 12.4226 8.39011 12.319 8.44525C12.3146 8.44756 12.31 8.44996 12.31 8.44996C12.18 8.52996 12.13 8.69996 12.21 8.82996Z" fill="#212121"/>
</svg>

<svg xmlns="http://www.w3.org/2000/svg" width="32" height="32" fill="none"><path fill="#212121" d="M23.59 12.34c.22-.45.34-.95.34-1.48 0-.7-.21-1.35-.57-1.89-.36-.56-.55-1.2-.55-1.85v-.01a3.43 3.43 0 0 0-3.43-3.43c-.19 0-.36-.09-.47-.24a3.414 3.414 0 0 0-2.79-1.43c-1.15 0-2.17.57-2.79 1.43a.56.56 0 0 1-.46.24 3.43 3.43 0 0 0-3.43 3.43c0 .66-.19 1.31-.55 1.85-.36.54-.57 1.19-.57 1.89 0 .53.12 1.04.34 1.48.07.15.07.33 0 .48-.22.44-.34.94-.34 1.46 0 1.85 1.5 3.35 3.35 3.35h8.92c1.85 0 3.35-1.5 3.35-3.35 0-.53-.12-1.02-.34-1.46a.52.52 0 0 1-.01-.47Z"/><path fill="#212121" d="M9 18.016c.183-.151.37-.296.564-.436l6.441-.08 6.948.472.047.04L24.5 24 23 30H9l-1.5-6L9 18.016Z"/><path fill="#F3EEF8" d="M16.036 15.5H16c-1.669 0-3.25.373-4.666 1.037h-.002c-.625.293-1.219.644-1.773 1.045a1.5 1.5 0 0 0 .732 1.74.155.155 0 0 1 .046.23 1.5 1.5 0 0 0 1.583 2.388c.04-.011.08.019.08.06a1.5 1.5 0 0 0 2.448 1.163.155.155 0 0 1 .23.046 1.5 1.5 0 0 0 2.644 0 .155.155 0 0 1 .23-.046A1.5 1.5 0 0 0 20 22c0-.041.04-.071.08-.06a1.5 1.5 0 0 0 1.688-2.242c-.056-.087-.003-.218.098-.243A1.5 1.5 0 0 0 23 18.018a10.94 10.94 0 0 0-6.964-2.518Z"/><path fill="#000" d="m15.076 10.342-.638.56-.005.004A4.256 4.256 0 0 0 13 14.085v2.949C13 18.69 14.357 20 16 20s3-1.31 3-2.965v-2.949c0-1.219-.536-2.376-1.443-3.18l-.005-.004-.63-.554-.008-.006a1.406 1.406 0 0 0-1.838 0ZM5 26.5c-.01-3.41 1.568-6.47 4-8.5v12H5v-3.5ZM22.996 30V18.01A10.973 10.973 0 0 1 27 26.5V30h-4.004ZM12.5 24.74v5.25h-1v-5.25c0-.28.22-.5.5-.5s.5.22.5.5ZM16.5 24.74v5.25h-1v-5.25c0-.28.22-.5.5-.5s.5.22.5.5ZM20.5 24.74v5.25h-1v-5.25c0-.28.22-.5.5-.5s.5.22.5.5Z"/><path fill="#F4C6AD" d="m15.097 11.653.631-.553a.406.406 0 0 1 .534 0l.631.553A3.266 3.266 0 0 1 18 14.086v2.949C18 18.122 17.107 19 16 19s-2-.878-2-1.965v-2.949c0-.925.398-1.812 1.097-2.433ZM26.995 23c.557 0 1.005.407 1.005.914V26h-2v-2.086c-.01-.507.437-.914.995-.914Z"/><path fill="#7D4533" d="M22.62 20.99c-.46 0-.84-.37-.84-.84v-2.33c0-.46.37-.84.84-.84.46 0 .84.37.84.84V18v-.5c0-.28.23-.5.5-.5h2.88c.27 0 .49.22.5.5v.19c.062-.4.405-.71.83-.71.46 0 .84.37.84.84v2.33a.839.839 0 0 1-1.67.13v.22c0 .28-.23.5-.5.5h-.52c.23.047.399.253.39.49 0 .28-.22.5-.5.5h-.07v5.38h-1.5v-5.38h-.07c-.28 0-.5-.22-.5-.5 0-.245.168-.444.398-.49h-.508c-.28 0-.5-.23-.5-.5V20v.15c0 .47-.38.84-.84.84Z"/><path fill="#FFD7C2" d="M24.202 24.51c-.374 0-.692.336-.702.765a.825.825 0 0 0 .31.681.814.814 0 0 0-.31.65c0 .272.119.513.31.65a.814.814 0 0 0-.31.649c0 .272.119.513.31.65a.851.851 0 0 0-.31.68c.01.43.328.765.702.765h3.006c.437 0 .792-.409.792-.911V25.41c0-.502-.355-.911-.792-.911h-3.006v.01Z"/><path fill="#F4C6AD" d="M13.161 10.66a1.63 1.63 0 1 1-3.26 0 1.63 1.63 0 0 1 3.26 0ZM22.359 10.66a1.63 1.63 0 1 1-3.26 0 1.63 1.63 0 0 1 3.26 0Z"/><path fill="#FFD7C2" d="M12.065 7.58h3.3c1.31 0 2.53-.65 3.27-1.73.12-.18.4-.15.48.05l.09.21c.23.57.68 1.02 1.22 1.27.04.01.08.03.11.04.25.12.81.5.83 1.48l-.14 3.29c-.12 2.92-2.37 4.87-5.1 4.87-2.73 0-4.98-1.95-5.1-4.87l-.13-3.13c.02-1.38.98-1.47 1.17-1.48Z"/><path fill="#000" d="M13.42 9.5c.59 0 1.07.4 1.37.86-.254.078-.501.148-.745.217-.446.127-.882.251-1.335.413l-.5-.45a.44.44 0 0 1 .03-.68c.33-.23.77-.36 1.18-.36ZM18.86 9.5c-.58 0-1.06.41-1.36.86.267.083.527.157.786.231.428.122.851.243 1.294.399l.5-.45a.44.44 0 0 0-.04-.68 2.13 2.13 0 0 0-1.18-.36Z"/><path fill="#fff" d="M12.2 10.7c.16-.63.73-1.1 1.41-1.1.7 0 1.29.5 1.42 1.17.03.15-.09.28-.24.28h-2.31c-.19 0-.32-.17-.28-.35ZM20.08 10.7c-.16-.63-.73-1.1-1.41-1.1-.7 0-1.29.5-1.42 1.17-.03.15.09.28.24.28h2.31c.19 0 .32-.17.28-.35Z"/><path fill="#7D4533" d="M12.89 10.81c0-.51.42-.93.93-.93s.93.41.93.92c0 .09-.01.17-.04.26h-1.79c-.02-.08-.03-.16-.03-.25ZM19.39 10.81c0-.51-.42-.93-.93-.93s-.93.41-.92.93c0 .09.01.17.03.25h1.79c.02-.08.03-.16.03-.25Z"/><path fill="#000" d="M13.82 10.27a.534.534 0 0 1 .47.78h-.94a.534.534 0 0 1 .47-.78ZM18.46 10.27a.534.534 0 0 0-.47.78h.94a.534.534 0 0 0-.47-.78Z"/><path fill="#fff" d="M13.67 10.44a.17.17 0 1 1-.34 0 .17.17 0 0 1 .34 0ZM18.32 10.44a.17.17 0 1 1-.34 0 .17.17 0 0 1 .34 0Z"/><path fill="#990838" d="M16.13 13.94c-.54 0-1.05-.13-1.47-.35-.15-.08-.3.09-.21.23.36.55.98.92 1.68.92s1.33-.37 1.68-.92c.09-.14-.07-.3-.21-.23-.43.22-.93.35-1.47.35Z"/><path fill="#E5AF93" d="m15.74 10.57-.53 1.7c-.11.35.15.7.52.7h.78c.37 0 .63-.35.52-.7l-.53-1.7c-.11-.37-.64-.37-.76 0Z"/><path fill="#212121" d="M19.66 8.93c.05.03.09.04.14.04.1 0 .19-.05.24-.14.08-.13.03-.3-.1-.38l-.009-.005c-.103-.055-.973-.517-1.97-.335-.15.02-.25.17-.22.32.02.15.17.25.32.22.767-.137 1.46.21 1.58.271a.435.435 0 0 0 .02.009ZM12.21 8.83c.05.09.14.14.24.14.05 0 .09-.01.14-.04l.018-.009c.12-.059.814-.398 1.582-.261.15.03.29-.07.31-.23a.273.273 0 0 0-.22-.32c-.989-.182-1.857.28-1.961.335l-.009.005c-.13.08-.18.25-.1.38Z"/></svg>
